X: 15
T: Rolling In The Ryegrass
R: reel
M: 4/4
L: 1/8
K: Dmaj
dB |A/B/A AF DFA/G/F |G2 BG DGBd | A2 AF D2 F/G/A | GBAF EFDB |
A^GAF DFAF | G2 DG BdGB | AB A/G/F DFAF | GBAF E2 ||
DB |ABde fdAd |g2 ge fdBG | A/B/A de f2 e/f/g | afdf e/f/e dB |
A2 c/d/e fAdA | gAfg e/f/e dB | ABde f/g/f df | aAdf e2 |]


Tune 87	Setting 87

